;FLAVOR:Marlin
;TIME:8130
;Filament used: 5.08774m
;Layer height: 0.2
;MINX:80.501
;MINY:87.769
;MINZ:0.2
;MAXX:218.198
;MAXY:216.837
;MAXZ:5
;Generated with Cura_SteamEngine 4.8.0
M140 S60
M105
M190 S60
M82 ;absolute extrusion mode
; start_gcode
M117 Start Clean        ; Indicate nozzle clean in progress on LCD
;
M104 S215 
M109 S215 
M109 R215 
;
M107                    ; Turn layer fan off
G21                     ; Set to metric [change to G20 if you want Imperial]
G90                     ; Force coordinates to be absolute relative to the origin
G28                     ; Home X/Y/Z axis
;
G1 X3 Y1 Z15 F9000      ; Move safe Z height to shear strings
G0 X1 Y1 Z0.2 F9000     ; Move in 1mm from edge and up [z] 0.2mm
G92 E0                  ; Set extruder to [0] zero
G1 X100 E12 F500        ; Extrude 30mm filiment along X axis 100mm long to prime and clean the nozzle
G92 E0                  ; Reset extruder to [0] zero end of cleaning run
G1 E-1 F500             ; Retract filiment by 1 mm to reduce string effect
G1 X180 F4000           ; quick wipe away from the filament line / purge
M117 End Clean          ; Indicate nozzle clean in progress on LCD
;
M117 Printing...
; Begin printing with sliced GCode after here
;
G92 E0
G92 E0
G1 F1800 E-4
;LAYER_COUNT:25
;LAYER:0
M107
M204 S500
M205 X8 Y8
G0 F3600 X98.232 Y110.777 Z0.2
;TYPE:SKIRT
G1 F1800 E0
G1 F1500 X98.998 Y110.179 E0.04202
G1 X99.969 Y109.553 E0.09197
G1 X100.8 Y109.074 E0.13344
G1 X101.704 Y108.568 E0.17824
G1 X103.823 Y107.303 E0.28494
G1 X105.954 Y105.949 E0.39411
G1 X108.013 Y104.555 E0.50162
G1 X110.002 Y103.126 E0.60752
G1 X112.009 Y101.596 E0.71664
G1 X113.964 Y100.017 E0.8253
G1 X115.84 Y98.411 E0.93207
G1 X117.689 Y96.736 E1.03995
G1 X119.513 Y94.986 E1.14924
G1 X121.245 Y93.228 E1.25595
G1 X122.616 Y91.755 E1.34296
G1 X122.933 Y91.424 E1.36277
G1 X123.634 Y90.751 E1.40479
G1 X124.388 Y90.137 E1.44683
G1 X125.19 Y89.587 E1.48888
G1 X126.034 Y89.104 E1.53093
G1 X126.915 Y88.693 E1.57296
G1 X127.827 Y88.356 E1.615
G1 X128.763 Y88.094 E1.65703
G1 X129.718 Y87.911 E1.69907
G1 X130.684 Y87.806 E1.74109
G1 X131.295 Y87.781 E1.76753
G1 X132.212 Y87.769 E1.80718
G1 X165.268 Y87.769 E3.23646
G1 X166.138 Y87.78 E3.27408
G1 X167.109 Y87.834 E3.31613
G1 X168.072 Y87.967 E3.35816
G1 X169.021 Y88.18 E3.40022
G1 X169.949 Y88.469 E3.44224
G1 X170.85 Y88.834 E3.48428
G1 X171.719 Y89.271 E3.52633
G1 X172.548 Y89.778 E3.56835
G1 X173.333 Y90.352 E3.6104
G1 X174.068 Y90.989 E3.65245
G1 X174.748 Y91.683 E3.69446
G1 X175.169 Y92.176 E3.7225
G1 X175.57 Y92.675 E3.75017
G1 X176.628 Y94.023 E3.82427
G1 X178.218 Y95.935 E3.93179
G1 X179.881 Y97.823 E4.04058
G1 X181.569 Y99.634 E4.14762
G1 X183.301 Y101.389 E4.25423
G1 X185.126 Y103.136 E4.36347
G1 X186.967 Y104.803 E4.47086
G1 X188.861 Y106.422 E4.57859
G1 X190.796 Y107.985 E4.68614
G1 X192.795 Y109.506 E4.79475
G1 X194.816 Y110.955 E4.90227
G1 X196.896 Y112.361 E5.01083
G1 X198.992 Y113.692 E5.11818
G1 X201.206 Y115.012 E5.22964
G1 X211.791 Y121.124 E5.75813
G1 X212.437 Y121.509 E5.79065
G1 X213.251 Y122.041 E5.83269
G1 X214.019 Y122.638 E5.87475
G1 X214.735 Y123.296 E5.9168
G1 X215.394 Y124.01 E5.95881
G1 X215.993 Y124.776 E6.00086
G1 X216.526 Y125.589 E6.04289
G1 X216.991 Y126.443 E6.08493
G1 X217.384 Y127.332 E6.12696
G1 X217.703 Y128.251 E6.16902
G1 X217.945 Y129.192 E6.21103
G1 X218.109 Y130.15 E6.25306
G1 X218.193 Y131.119 E6.29511
G1 X218.198 Y132.091 E6.33714
G1 X218.123 Y133.06 E6.37917
G1 X217.969 Y134.02 E6.4212
G1 X217.736 Y134.964 E6.46325
G1 X217.59 Y135.43 E6.48436
G1 X217.337 Y136.183 E6.51871
G1 X216.552 Y138.63 E6.62982
G1 X215.859 Y141.021 E6.73746
G1 X215.236 Y143.42 E6.84463
G1 X214.67 Y145.885 E6.95398
G1 X214.191 Y148.289 E7.05997
G1 X213.763 Y150.801 E7.17015
G1 X213.419 Y153.227 E7.2761
G1 X213.137 Y155.723 E7.38471
G1 X212.931 Y158.169 E7.49084
G1 X212.791 Y160.676 E7.59941
G1 X212.712 Y164.467 E7.76336
G1 X212.711 Y172.037 E8.09067
G1 X212.701 Y172.766 E8.1222
G1 X212.648 Y173.737 E8.16424
G1 X212.515 Y174.7 E8.20628
G1 X212.303 Y175.649 E8.24832
G1 X212.014 Y176.577 E8.29035
G1 X211.65 Y177.479 E8.3324
G1 X211.213 Y178.347 E8.37442
G1 X210.706 Y179.177 E8.41648
G1 X210.133 Y179.962 E8.4585
G1 X209.497 Y180.697 E8.50052
G1 X208.802 Y181.378 E8.5426
G1 X208.055 Y181.999 E8.5846
G1 X207.258 Y182.557 E8.62667
G1 X206.362 Y183.077 E8.67146
G1 X205.576 Y183.488 E8.70981
G1 X203.338 Y184.699 E8.81984
G1 X201.155 Y185.961 E8.92886
G1 X199.042 Y187.263 E9.03618
G1 X196.97 Y188.622 E9.14332
G1 X194.911 Y190.059 E9.25188
G1 X192.921 Y191.532 E9.35893
G1 X190.956 Y193.074 E9.46693
G1 X189.012 Y194.692 E9.57629
G1 X187.148 Y196.333 E9.68367
G1 X185.337 Y198.022 E9.79075
G1 X183.57 Y199.764 E9.89803
G1 X181.83 Y201.582 E10.00684
G1 X180.17 Y203.417 E10.11383
G1 X178.54 Y205.323 E10.22227
G1 X176.964 Y207.277 E10.33081
G1 X175.466 Y209.245 E10.43775
G1 X173.986 Y211.307 E10.5475
G1 X173.559 Y211.912 E10.57952
G1 X172.959 Y212.677 E10.62155
G1 X172.298 Y213.39 E10.66359
G1 X171.581 Y214.047 E10.70564
G1 X170.812 Y214.642 E10.74768
G1 X169.997 Y215.172 E10.78972
G1 X169.142 Y215.633 E10.83172
G1 X168.251 Y216.022 E10.87375
G1 X167.331 Y216.337 E10.9158
G1 X166.388 Y216.575 E10.95785
G1 X165.429 Y216.735 E10.99989
G1 X164.143 Y216.825 E11.05563
G1 X163.228 Y216.837 E11.0952
G1 X130.002 Y216.836 E12.53183
G1 X129.3 Y216.826 E12.56218
G1 X128.329 Y216.772 E12.60423
G1 X127.366 Y216.639 E12.64627
G1 X126.417 Y216.426 E12.68832
G1 X125.489 Y216.137 E12.73035
G1 X124.588 Y215.772 E12.77238
G1 X123.719 Y215.335 E12.81444
G1 X122.89 Y214.828 E12.85645
G1 X122.105 Y214.254 E12.8985
G1 X121.37 Y213.617 E12.94056
G1 X120.69 Y212.923 E12.98257
G1 X119.867 Y211.902 E13.03927
G1 X119.586 Y211.509 E13.06016
G1 X118.409 Y209.821 E13.14914
G1 X116.95 Y207.85 E13.25517
G1 X115.403 Y205.881 E13.36344
G1 X113.783 Y203.934 E13.47295
G1 X112.149 Y202.08 E13.57981
G1 X110.473 Y200.282 E13.68608
G1 X108.697 Y198.483 E13.79539
G1 X106.894 Y196.757 E13.90331
G1 X105.066 Y195.103 E14.0099
G1 X103.136 Y193.454 E14.11966
G1 X101.212 Y191.902 E14.22655
G1 X99.057 Y190.261 E14.34366
G1 X98.309 Y189.641 E14.38567
G1 X97.458 Y188.793 E14.43762
G1 X96.553 Y187.792 E14.49596
G1 X94.862 Y185.971 E14.60341
G1 X93.105 Y184.185 E14.71174
G1 X91.295 Y182.446 E14.82027
G1 X89.475 Y180.793 E14.92658
G1 X87.56 Y179.152 E15.03562
G1 X85.619 Y177.58 E15.14362
G1 X85.161 Y177.223 E15.16873
G1 X84.92 Y177.029 E15.1821
G1 X84.189 Y176.389 E15.22411
G1 X83.512 Y175.691 E15.26616
G1 X82.895 Y174.94 E15.30818
G1 X82.342 Y174.14 E15.35023
G1 X81.857 Y173.298 E15.39225
G1 X81.442 Y172.418 E15.43431
G1 X81.101 Y171.508 E15.47633
G1 X80.836 Y170.572 E15.51839
G1 X80.649 Y169.618 E15.56043
G1 X80.541 Y168.652 E15.60246
G1 X80.513 Y167.998 E15.63076
G1 X80.501 Y167.082 E15.67037
G1 X80.502 Y133.856 E17.107
G1 X80.512 Y133.154 E17.13736
G1 X80.566 Y132.183 E17.17941
G1 X80.699 Y131.22 E17.22144
G1 X80.912 Y130.271 E17.26349
G1 X81.201 Y129.343 E17.30552
G1 X81.566 Y128.442 E17.34755
G1 X82.003 Y127.573 E17.38961
G1 X82.51 Y126.744 E17.43163
G1 X83.084 Y125.959 E17.47368
G1 X83.721 Y125.224 E17.51573
G1 X84.645 Y124.342 E17.57096
G1 X85.332 Y123.754 E17.61006
G1 X86.065 Y123.144 E17.65129
G1 X87.953 Y121.482 E17.76005
G1 X89.775 Y119.784 E17.86774
G1 X91.522 Y118.061 E17.97383
G1 X93.291 Y116.215 E18.08438
G1 X94.939 Y114.394 E18.19058
G1 X96.904 Y112.099 E18.32121
G1 X97.517 Y111.436 E18.36025
G1 X98.232 Y110.777 E18.4023
G0 F3600 X98.617 Y111.133
G1 F1500 X99.37 Y110.553 E18.44339
G1 X100.229 Y110.003 E18.4875
G1 X101.054 Y109.528 E18.52866
G1 X101.951 Y109.026 E18.5731
G1 X104.107 Y107.739 E18.68167
G1 X106.211 Y106.401 E18.78948
G1 X108.319 Y104.975 E18.89952
G1 X110.332 Y103.528 E19.00672
G1 X112.339 Y101.999 E19.11581
G1 X114.279 Y100.432 E19.22364
G1 X116.197 Y98.79 E19.33281
G1 X118.048 Y97.113 E19.4408
G1 X119.858 Y95.376 E19.54927
G1 X121.629 Y93.579 E19.65836
G1 X122.992 Y92.115 E19.74485
G1 X123.309 Y91.784 E19.76467
G1 X123.995 Y91.126 E19.80577
G1 X124.733 Y90.528 E19.84684
G1 X125.52 Y89.994 E19.88796
G1 X126.348 Y89.527 E19.92906
G1 X127.213 Y89.133 E19.97016
G1 X128.108 Y88.812 E20.01127
G1 X129.026 Y88.567 E20.05235
G1 X129.962 Y88.401 E20.09346
G1 X131.302 Y88.301 E20.15156
G1 X132.212 Y88.289 E20.19091
G1 X165.429 Y88.29 E21.62715
G1 X166.131 Y88.3 E21.65751
G1 X167.08 Y88.354 E21.69861
G1 X168.021 Y88.487 E21.7397
G1 X168.948 Y88.698 E21.7808
G1 X169.854 Y88.987 E21.82192
G1 X170.732 Y89.351 E21.86302
G1 X171.576 Y89.788 E21.90411
G1 X172.381 Y90.294 E21.94523
G1 X173.14 Y90.865 E21.98629
G1 X173.849 Y91.499 E22.02742
G1 X174.764 Y92.503 E22.08615
G1 X175.161 Y92.996 E22.11352
G1 X176.221 Y94.347 E22.18777
G1 X177.828 Y96.279 E22.29643
G1 X179.479 Y98.153 E22.40442
G1 X181.204 Y100.003 E22.51378
G1 X182.956 Y101.78 E22.62168
G1 X184.747 Y103.495 E22.7289
G1 X186.63 Y105.199 E22.83871
G1 X188.525 Y106.819 E22.9465
G1 X190.488 Y108.404 E23.05559
G1 X192.489 Y109.927 E23.16432
G1 X194.511 Y111.376 E23.27188
G1 X196.614 Y112.798 E23.38165
G1 X198.72 Y114.135 E23.48951
G1 X200.915 Y115.444 E23.60001
G1 X211.525 Y121.571 E24.12977
G1 X212.171 Y121.956 E24.16228
G1 X212.966 Y122.477 E24.20338
G1 X213.715 Y123.062 E24.24447
G1 X214.412 Y123.709 E24.28559
G1 X215.052 Y124.411 E24.32667
G1 X215.631 Y125.165 E24.36777
G1 X216.145 Y125.965 E24.40889
G1 X216.589 Y126.806 E24.45001
G1 X216.961 Y127.681 E24.49112
G1 X217.258 Y128.583 E24.53218
G1 X217.479 Y129.508 E24.5733
G1 X217.62 Y130.448 E24.6144
G1 X217.683 Y131.397 E24.65552
G1 X217.665 Y132.347 E24.6966
G1 X217.568 Y133.293 E24.73772
G1 X217.391 Y134.227 E24.77882
G1 X217.097 Y135.264 E24.82543
G1 X216.849 Y136.001 E24.85905
G1 X216.057 Y138.469 E24.97112
G1 X215.357 Y140.888 E25.08001
G1 X214.726 Y143.315 E25.18844
G1 X214.162 Y145.769 E25.29731
G1 X213.677 Y148.208 E25.40483
G1 X213.256 Y150.674 E25.513
G1 X212.899 Y153.2 E25.6233
G1 X212.621 Y155.659 E25.7303
G1 X212.41 Y158.167 E25.83913
G1 X212.273 Y160.608 E25.94484
G1 X212.192 Y164.504 E26.11333
G1 X212.191 Y172.03 E26.43874
G1 X212.181 Y172.759 E26.47027
G1 X212.128 Y173.708 E26.51136
G1 X211.995 Y174.649 E26.55245
G1 X211.784 Y175.576 E26.59356
G1 X211.496 Y176.482 E26.63467
G1 X211.132 Y177.36 E26.67576
G1 X210.696 Y178.205 E26.71688
G1 X210.191 Y179.01 E26.75797
G1 X209.619 Y179.77 E26.79909
G1 X208.986 Y180.479 E26.84019
G1 X208.296 Y181.132 E26.88127
G1 X207.553 Y181.725 E26.92237
G1 X206.763 Y182.253 E26.96345
G1 X206.121 Y182.616 E26.99534
G1 X205.378 Y183.005 E27.03161
G1 X203.077 Y184.25 E27.14473
G1 X200.895 Y185.511 E27.25369
G1 X198.773 Y186.819 E27.36148
G1 X196.652 Y188.21 E27.47115
G1 X194.623 Y189.625 E27.5781
G1 X192.597 Y191.126 E27.68713
G1 X190.614 Y192.682 E27.79611
G1 X188.704 Y194.271 E27.90354
G1 X186.8 Y195.947 E28.01322
G1 X184.967 Y197.656 E28.12158
G1 X183.197 Y199.403 E28.22911
G1 X181.455 Y201.222 E28.33801
G1 X179.756 Y203.099 E28.44748
G1 X178.142 Y204.988 E28.55491
G1 X176.561 Y206.947 E28.66375
G1 X175.063 Y208.916 E28.77073
G1 X173.546 Y211.029 E28.8832
G1 X173.137 Y211.609 E28.91388
G1 X172.55 Y212.356 E28.95496
G1 X171.902 Y213.051 E28.99605
G1 X171.198 Y213.69 E29.03716
G1 X170.442 Y214.267 E29.07828
G1 X169.641 Y214.778 E29.11936
G1 X168.799 Y215.221 E29.1605
G1 X167.924 Y215.591 E29.20157
G1 X167.02 Y215.886 E29.24269
G1 X166.095 Y216.104 E29.28378
G1 X165.155 Y216.243 E29.32487
G1 X164.135 Y216.305 E29.36905
G1 X163.228 Y216.317 E29.40827
G1 X130.009 Y216.316 E30.8446
G1 X129.307 Y216.306 E30.87496
G1 X128.358 Y216.252 E30.91605
G1 X127.417 Y216.119 E30.95715
G1 X126.49 Y215.908 E30.99825
G1 X125.584 Y215.619 E31.03937
G1 X124.706 Y215.255 E31.08047
G1 X123.862 Y214.818 E31.12156
G1 X123.057 Y214.312 E31.16267
G1 X122.298 Y213.741 E31.20374
G1 X121.589 Y213.107 E31.24487
G1 X120.936 Y212.416 E31.28597
G1 X120.29 Y211.598 E31.33104
G1 X120.013 Y211.211 E31.35162
G1 X118.85 Y209.543 E31.43954
G1 X117.361 Y207.532 E31.54773
G1 X115.795 Y205.539 E31.65733
G1 X114.203 Y203.626 E31.76494
G1 X112.535 Y201.732 E31.87406
G1 X110.822 Y199.894 E31.9827
G1 X109.076 Y198.127 E32.09011
G1 X107.254 Y196.382 E32.19919
G1 X105.384 Y194.689 E32.30826
G1 X103.492 Y193.074 E32.41582
G1 X101.542 Y191.501 E32.52414
G1 X99.372 Y189.848 E32.64209
G1 X98.641 Y189.24 E32.6832
G1 X97.844 Y188.444 E32.73191
G1 X96.957 Y187.463 E32.78909
G1 X95.229 Y185.602 E32.8989
G1 X93.487 Y183.831 E33.00631
G1 X91.654 Y182.07 E33.11621
G1 X89.795 Y180.383 E33.22475
G1 X87.914 Y178.77 E33.33189
G1 X85.919 Y177.154 E33.4429
G1 X85.487 Y176.818 E33.46657
G1 X85.246 Y176.624 E33.47994
G1 X84.532 Y175.998 E33.521
G1 X83.872 Y175.313 E33.56213
G1 X83.272 Y174.576 E33.60322
G1 X82.737 Y173.79 E33.64433
G1 X82.269 Y172.963 E33.68542
G1 X81.873 Y172.099 E33.72651
G1 X81.55 Y171.205 E33.76761
G1 X81.304 Y170.286 E33.80875
G1 X81.136 Y169.351 E33.84982
G1 X81.033 Y167.99 E33.90884
G1 X81.021 Y167.082 E33.9481
G1 X81.022 Y133.863 E35.38443
G1 X81.032 Y133.161 E35.41479
G1 X81.086 Y132.212 E35.45589
G1 X81.219 Y131.271 E35.49698
G1 X81.43 Y130.344 E35.53809
G1 X81.719 Y129.438 E35.5792
G1 X82.083 Y128.56 E35.6203
G1 X82.52 Y127.716 E35.6614
G1 X83.026 Y126.911 E35.70251
G1 X83.597 Y126.152 E35.74358
G1 X84.231 Y125.443 E35.7847
G1 X84.983 Y124.737 E35.8293
G1 X85.793 Y124.045 E35.87536
G1 X86.411 Y123.531 E35.91012
G1 X88.301 Y121.867 E36.019
G1 X90.145 Y120.15 E36.12794
G1 X91.913 Y118.405 E36.23535
G1 X93.65 Y116.593 E36.34388
G1 X95.353 Y114.711 E36.45363
G1 X97.292 Y112.446 E36.58254
G1 X97.915 Y111.774 E36.62217
G1 X98.617 Y111.133 E36.66327
G0 F3600 X99.001 Y111.489
G1 F1500 X99.74 Y110.928 E36.70339
G1 X100.489 Y110.454 E36.74171
G1 X101.308 Y109.982 E36.78258
G1 X102.21 Y109.478 E36.82726
G1 X104.379 Y108.182 E36.93651
G1 X106.51 Y106.828 E37.04568
G1 X108.602 Y105.412 E37.1549
G1 X110.645 Y103.944 E37.26368
G1 X112.648 Y102.418 E37.37256
G1 X114.615 Y100.829 E37.48189
G1 X116.534 Y99.185 E37.59115
G1 X118.407 Y97.488 E37.70043
G1 X120.221 Y95.749 E37.80908
G1 X121.995 Y93.948 E37.91839
G1 X123.26 Y92.588 E37.9987
G1 X123.685 Y92.144 E38.02527
G1 X124.355 Y91.502 E38.0654
G1 X125.078 Y90.919 E38.10555
G1 X125.849 Y90.402 E38.14569
G1 X126.661 Y89.952 E38.18583
G1 X127.509 Y89.574 E38.22598
G1 X128.387 Y89.27 E38.26615
G1 X129.287 Y89.043 E38.30628
G1 X130.203 Y88.895 E38.3464
G1 X131.31 Y88.821 E38.39437
G1 X132.212 Y88.809 E38.43338
G1 X165.268 Y88.809 E39.86266
G1 X166.124 Y88.82 E39.89967
G1 X167.05 Y88.873 E39.93978
G1 X167.969 Y89.006 E39.97993
G1 X168.873 Y89.217 E40.02007
G1 X169.756 Y89.506 E40.06024
G1 X170.61 Y89.869 E40.10036
G1 X171.43 Y90.304 E40.1405
G1 X172.21 Y90.809 E40.18067
G1 X172.943 Y91.378 E40.2208
G1 X173.625 Y92.009 E40.26097
G1 X174.359 Y92.829 E40.30855
G1 X174.752 Y93.317 E40.33565
G1 X175.828 Y94.689 E40.41104
G1 X177.423 Y96.606 E40.51886
G1 X179.111 Y98.522 E40.62927
G1 X180.803 Y100.338 E40.73659
G1 X182.577 Y102.135 E40.84577
G1 X184.425 Y103.906 E40.95645
G1 X186.273 Y105.578 E41.0642
G1 X188.211 Y107.234 E41.17442
G1 X190.158 Y108.806 E41.28262
G1 X192.16 Y110.33 E41.39141
G1 X194.246 Y111.826 E41.5024
G1 X196.3 Y113.215 E41.60962
G1 X198.438 Y114.572 E41.71911
G1 X200.678 Y115.907 E41.83186
G1 X211.259 Y122.018 E42.36018
G1 X211.905 Y122.403 E42.3927
G1 X212.681 Y122.912 E42.43282
G1 X213.411 Y123.486 E42.47298
G1 X214.088 Y124.121 E42.51311
G1 X214.709 Y124.812 E42.55328
G1 X215.267 Y125.553 E42.59339
G1 X215.76 Y126.34 E42.63354
G1 X216.183 Y127.166 E42.67367
G1 X216.534 Y128.026 E42.71383
G1 X216.809 Y128.913 E42.75398
G1 X217.007 Y129.82 E42.79412
G1 X217.126 Y130.741 E42.83428
G1 X217.166 Y131.668 E42.8744
G1 X217.126 Y132.596 E42.91456
G1 X217.005 Y133.516 E42.95468
G1 X216.807 Y134.423 E42.99482
G1 X216.604 Y135.098 E43.0253
G1 X216.362 Y135.819 E43.05818
G1 X215.553 Y138.341 E43.1727
G1 X214.863 Y140.722 E43.27989
G1 X214.219 Y143.202 E43.39067
G1 X213.655 Y145.653 E43.49942
G1 X213.163 Y148.129 E43.60857
G1 X212.743 Y150.588 E43.71643
G1 X212.387 Y153.107 E43.82643
G1 X212.102 Y155.623 E43.93592
G1 X211.891 Y158.131 E44.04474
G1 X211.753 Y160.597 E44.15153
G1 X211.672 Y164.493 E44.32003
