;FLAVOR:Marlin
;TIME:2157
;Filament used: 1.46206m
;Layer height: 0.2
;MINX:116.287
;MINY:128.719
;MINZ:0.2
;MAXX:183.73
;MAXY:181.085
;MAXZ:6
;Generated with Cura_SteamEngine 4.8.0
M140 S60
M105
M190 S60
M82 ;absolute extrusion mode
; start_gcode
M117 Start Clean        ; Indicate nozzle clean in progress on LCD
;
M104 S220 
M109 S220 
M109 R220 
;
M107                    ; Turn layer fan off
G21                     ; Set to metric [change to G20 if you want Imperial]
G90                     ; Force coordinates to be absolute relative to the origin
G28                     ; Home X/Y/Z axis
;
G1 X3 Y1 Z15 F9000      ; Move safe Z height to shear strings
G0 X1 Y1 Z0.2 F9000     ; Move in 1mm from edge and up [z] 0.2mm
G92 E0                  ; Set extruder to [0] zero
G1 X100 E12 F500        ; Extrude 30mm filiment along X axis 100mm long to prime and clean the nozzle
G92 E0                  ; Reset extruder to [0] zero end of cleaning run
G1 E-1 F500             ; Retract filiment by 1 mm to reduce string effect
G1 X180 F4000           ; quick wipe away from the filament line / purge
M117 End Clean          ; Indicate nozzle clean in progress on LCD
;
M117 Printing...
; Begin printing with sliced GCode after here
;
G92 E0
G92 E0
G1 F2400 E-6.8
;LAYER_COUNT:30
;LAYER:0
M107
M204 S500
M205 X8 Y8
G0 F3600 X122.392 Y151.063 Z0.2
;TYPE:SKIRT
G1 F2400 E0
G1 F1500 X122.936 Y150.634 E0.02304
G1 X123.352 Y150.32 E0.04038
G1 X124.138 Y149.777 E0.07215
G1 X124.672 Y149.46 E0.09281
G1 X125.311 Y149.109 E0.11706
G1 X125.76 Y148.874 E0.13391
G1 X126.363 Y148.58 E0.15622
G1 X127.13 Y148.236 E0.18418
G1 X146.272 Y139.899 E0.87861
G1 X146.924 Y139.626 E0.90212
G1 X147.526 Y139.393 E0.92359
G1 X148.163 Y139.168 E0.94606
G1 X150.53 Y138.293 E1.03
G1 X152.886 Y137.344 E1.11447
G1 X155.171 Y136.349 E1.19737
G1 X157.445 Y135.282 E1.28091
G1 X159.665 Y134.161 E1.36363
G1 X161.872 Y132.968 E1.44707
G1 X164.043 Y131.713 E1.53048
G1 X165.41 Y130.868 E1.58393
G1 X166.236 Y130.368 E1.61604
G1 X167.072 Y129.908 E1.64778
G1 X167.945 Y129.52 E1.67955
G1 X168.846 Y129.206 E1.71129
G1 X169.771 Y128.969 E1.74305
G1 X170.713 Y128.81 E1.77482
G1 X171.826 Y128.724 E1.81195
G1 X172.008 Y128.719 E1.81801
G1 X172.963 Y128.733 E1.84977
G1 X173.913 Y128.827 E1.88153
G1 X174.852 Y128.999 E1.91328
G1 X175.773 Y129.25 E1.94503
G1 X176.67 Y129.577 E1.97678
G1 X177.537 Y129.978 E2.00855
G1 X178.367 Y130.45 E2.04031
G1 X179.154 Y130.99 E2.07206
G1 X179.894 Y131.594 E2.10383
G1 X180.58 Y132.257 E2.13556
G1 X181.209 Y132.976 E2.16733
G1 X181.775 Y133.745 E2.19909
G1 X182.275 Y134.558 E2.23083
G1 X182.705 Y135.411 E2.2626
G1 X183.062 Y136.296 E2.29434
G1 X183.344 Y137.208 E2.3261
G1 X183.549 Y138.141 E2.35787
G1 X183.675 Y139.087 E2.38961
G1 X183.714 Y139.727 E2.41093
G1 X183.729 Y140.494 E2.43645
G1 X183.73 Y166.202 E3.2915
G1 X183.719 Y167.084 E3.32084
G1 X183.666 Y168.038 E3.35262
G1 X183.533 Y168.983 E3.38436
G1 X183.322 Y169.914 E3.41611
G1 X183.033 Y170.824 E3.44787
G1 X182.669 Y171.707 E3.47963
G1 X182.233 Y172.556 E3.51138
G1 X181.727 Y173.366 E3.54314
G1 X181.156 Y174.131 E3.57489
G1 X180.522 Y174.845 E3.60665
G1 X179.83 Y175.503 E3.63841
G1 X179.086 Y176.102 E3.67018
G1 X178.295 Y176.636 E3.70192
G1 X177.462 Y177.102 E3.73367
G1 X176.592 Y177.496 E3.76543
G1 X176.098 Y177.683 E3.783
G1 X175.409 Y177.925 E3.80729
G1 X175.097 Y178.029 E3.81823
G1 X174.508 Y178.217 E3.83879
G1 X173.946 Y178.381 E3.85827
G1 X173.26 Y178.556 E3.88181
G1 X172.746 Y178.675 E3.89936
G1 X171.753 Y178.859 E3.93295
G1 X171.042 Y178.955 E3.95681
G1 X170.629 Y179.002 E3.97064
G1 X169.946 Y179.059 E3.99343
G1 X169.284 Y179.084 E4.01547
G1 X168.291 Y179.095 E4.0485
G1 X157.066 Y179.095 E4.42184
G1 X154.476 Y179.132 E4.50799
G1 X151.941 Y179.239 E4.59238
G1 X149.499 Y179.412 E4.67381
G1 X146.925 Y179.667 E4.75984
G1 X135.891 Y180.917 E5.12918
G1 X134.992 Y181.006 E5.15923
G1 X134.375 Y181.049 E5.1798
G1 X133.613 Y181.078 E5.20516
G1 X133.145 Y181.085 E5.22073
G1 X131.954 Y181.04 E5.26037
G1 X131.448 Y180.987 E5.27729
G1 X130.792 Y180.899 E5.2993
G1 X130.3 Y180.823 E5.31586
G1 X129.363 Y180.638 E5.34763
G1 X128.826 Y180.495 E5.36611
G1 X128.079 Y180.269 E5.39207
G1 X127.576 Y180.103 E5.40969
G1 X126.683 Y179.766 E5.44143
G1 X126.129 Y179.512 E5.4617
G1 X125.44 Y179.168 E5.48732
G1 X124.976 Y178.922 E5.50478
G1 X124.152 Y178.44 E5.53653
G1 X123.649 Y178.097 E5.55678
G1 X123.009 Y177.629 E5.58315
G1 X122.625 Y177.334 E5.59926
G1 X121.686 Y176.528 E5.64042
G1 X121.113 Y175.953 E5.66742
G1 X120.92 Y175.752 E5.67669
G1 X120.572 Y175.378 E5.69368
G1 X119.952 Y174.652 E5.72543
G1 X119.597 Y174.176 E5.74518
G1 X119.171 Y173.563 E5.77001
G1 X118.922 Y173.188 E5.78498
G1 X118.501 Y172.502 E5.81175
G1 X118.467 Y172.442 E5.81405
G1 X118.088 Y171.715 E5.84131
G1 X117.765 Y171.023 E5.86671
G1 X117.57 Y170.579 E5.88284
G1 X117.223 Y169.69 E5.91458
G1 X117.041 Y169.109 E5.93483
G1 X116.838 Y168.372 E5.96026
G1 X116.71 Y167.862 E5.97775
G1 X116.516 Y166.927 E6.00951
G1 X116.434 Y166.321 E6.02985
G1 X116.355 Y165.55 E6.05563
G1 X116.317 Y165.077 E6.07141
G1 X116.287 Y163.771 E6.11486
G1 X116.324 Y163.053 E6.13877
G1 X116.346 Y162.764 E6.14841
G1 X116.391 Y162.246 E6.1657
G1 X116.513 Y161.299 E6.19746
G1 X116.626 Y160.73 E6.21676
G1 X116.806 Y159.962 E6.24299
G1 X116.941 Y159.445 E6.26076
G1 X117.326 Y158.245 E6.30268
G1 X117.597 Y157.576 E6.32669
G1 X117.72 Y157.291 E6.33701
G1 X117.937 Y156.806 E6.35468
G1 X118.363 Y155.952 E6.38643
G1 X118.69 Y155.397 E6.40785
G1 X119.107 Y154.743 E6.43365
G1 X119.381 Y154.334 E6.45002
G1 X119.945 Y153.564 E6.48177
G1 X120.332 Y153.105 E6.50174
G1 X120.821 Y152.562 E6.52604
G1 X121.17 Y152.191 E6.54298
G1 X121.835 Y151.539 E6.57396
G1 X121.876 Y151.502 E6.57579
G1 X122.392 Y151.063 E6.59833
G0 F3600 X122.642 Y151.375
G1 F1500 X123.177 Y150.953 E6.62099
G1 X123.593 Y150.639 E6.63833
G1 X124.365 Y150.107 E6.66951
G1 X124.867 Y149.809 E6.68893
G1 X125.496 Y149.463 E6.7128
G1 X125.945 Y149.228 E6.72966
G1 X126.527 Y148.945 E6.75118
G1 X127.29 Y148.602 E6.77901
G1 X146.282 Y140.329 E7.46801
G1 X147.079 Y139.995 E7.49675
G1 X147.66 Y139.77 E7.51748
G1 X148.288 Y139.548 E7.53963
G1 X150.669 Y138.667 E7.62407
G1 X153.059 Y137.706 E7.70975
G1 X155.322 Y136.72 E7.79185
G1 X157.617 Y135.643 E7.87617
G1 X159.872 Y134.504 E7.9602
G1 X162.041 Y133.332 E8.04219
G1 X164.263 Y132.048 E8.12755
G1 X165.617 Y131.21 E8.18051
G1 X166.443 Y130.71 E8.21263
G1 X167.265 Y130.259 E8.24381
G1 X168.123 Y129.879 E8.27502
G1 X169.01 Y129.575 E8.30621
G1 X169.919 Y129.346 E8.33739
G1 X170.845 Y129.196 E8.36859
G1 X171.837 Y129.124 E8.40167
G1 X172.019 Y129.119 E8.40772
G1 X172.957 Y129.133 E8.43892
G1 X173.89 Y129.227 E8.47011
G1 X174.812 Y129.401 E8.50132
G1 X175.715 Y129.652 E8.53249
G1 X176.594 Y129.979 E8.56369
G1 X177.442 Y130.38 E8.59488
G1 X178.253 Y130.851 E8.62608
G1 X179.02 Y131.39 E8.65726
G1 X179.739 Y131.993 E8.68847
G1 X180.404 Y132.654 E8.71965
G1 X181.01 Y133.37 E8.75085
G1 X181.553 Y134.134 E8.78203
G1 X182.029 Y134.943 E8.81325
G1 X182.434 Y135.788 E8.84441
G1 X182.766 Y136.666 E8.87563
G1 X183.022 Y137.568 E8.90682
G1 X183.2 Y138.489 E8.93802
G1 X183.315 Y139.741 E8.97984
G1 X183.329 Y140.498 E9.00502
G1 X183.33 Y166.202 E9.85994
G1 X183.319 Y167.079 E9.88911
G1 X183.266 Y168.015 E9.92029
G1 X183.134 Y168.944 E9.9515
G1 X182.922 Y169.857 E9.98267
G1 X182.634 Y170.75 E10.01388
G1 X182.271 Y171.615 E10.04508
G1 X181.836 Y172.445 E10.07625
G1 X181.331 Y173.236 E10.10746
G1 X180.761 Y173.98 E10.13863
G1 X180.129 Y174.674 E10.16985
G1 X179.441 Y175.311 E10.20104
G1 X178.701 Y175.887 E10.23223
G1 X177.915 Y176.398 E10.26341
G1 X177.088 Y176.84 E10.2946
G1 X175.965 Y177.305 E10.33503
G1 X175.276 Y177.547 E10.35931
G1 X174.976 Y177.648 E10.36984
G1 X174.387 Y177.836 E10.39041
G1 X173.844 Y177.994 E10.40922
G1 X173.17 Y178.167 E10.43236
G1 X172.656 Y178.286 E10.44991
G1 X171.698 Y178.463 E10.48231
G1 X170.997 Y178.557 E10.50583
G1 X170.584 Y178.604 E10.51966
G1 X169.924 Y178.659 E10.54169
G1 X169.28 Y178.684 E10.56312
G1 X168.291 Y178.695 E10.59602
G1 X157.061 Y178.695 E10.96953
G1 X154.453 Y178.732 E11.05628
G1 X151.931 Y178.839 E11.14024
G1 X149.432 Y179.016 E11.22356
G1 X146.908 Y179.266 E11.30792
G1 X135.679 Y180.537 E11.68379
G1 X134.953 Y180.608 E11.70805
G1 X134.358 Y180.65 E11.72789
G1 X133.608 Y180.678 E11.75285
G1 X133.14 Y180.685 E11.76842
G1 X131.99 Y180.642 E11.80669
G1 X131.145 Y180.545 E11.83498
G1 X130.361 Y180.428 E11.86135
G1 X129.441 Y180.246 E11.89254
G1 X128.939 Y180.111 E11.90983
G1 X128.205 Y179.889 E11.93533
G1 X127.702 Y179.723 E11.95295
G1 X126.824 Y179.391 E11.98417
G1 X126.305 Y179.153 E12.00316
G1 X125.627 Y178.815 E12.02836
G1 X125.163 Y178.569 E12.04583
G1 X124.354 Y178.094 E12.07703
G1 X123.883 Y177.773 E12.09599
G1 X123.253 Y177.312 E12.12195
G1 X122.869 Y177.017 E12.13806
G1 X121.963 Y176.239 E12.17778
G1 X121.399 Y175.674 E12.20433
G1 X121.213 Y175.479 E12.21329
G1 X120.865 Y175.105 E12.23028
G1 X120.256 Y174.392 E12.26147
G1 X119.924 Y173.946 E12.27996
G1 X119.504 Y173.342 E12.30443
G1 X119.255 Y172.967 E12.31941
G1 X118.849 Y172.305 E12.34523
G1 X118.815 Y172.245 E12.34753
G1 X118.45 Y171.543 E12.37384
G1 X118.132 Y170.862 E12.39884
G1 X117.937 Y170.418 E12.41497
G1 X117.596 Y169.544 E12.44617
G1 X117.426 Y168.999 E12.46516
G1 X117.226 Y168.275 E12.49015
G1 X117.098 Y167.765 E12.50763
G1 X116.909 Y166.846 E12.53884
G1 X116.832 Y166.278 E12.5579
G1 X116.753 Y165.518 E12.58332
G1 X116.715 Y165.045 E12.5991
G1 X116.687 Y163.785 E12.64102
G1 X116.724 Y163.077 E12.6646
G1 X116.744 Y162.799 E12.67387
G1 X116.789 Y162.281 E12.69116
G1 X116.91 Y161.351 E12.72236
G1 X117.016 Y160.818 E12.74043
G1 X117.193 Y160.063 E12.76622
G1 X117.328 Y159.546 E12.78399
G1 X117.7 Y158.388 E12.82445
G1 X117.966 Y157.73 E12.84805
G1 X118.085 Y157.455 E12.85802
G1 X118.302 Y156.97 E12.87569
G1 X118.721 Y156.131 E12.90688
G1 X119.029 Y155.61 E12.92701
G1 X119.439 Y154.966 E12.95241
G1 X119.713 Y154.557 E12.96878
G1 X120.268 Y153.8 E13
G1 X120.63 Y153.371 E13.01867
G1 X121.112 Y152.836 E13.04262
G1 X121.461 Y152.465 E13.05956
G1 X122.103 Y151.836 E13.08946
G1 X122.144 Y151.799 E13.09129
G1 X122.642 Y151.375 E13.11305
G0 F3600 X122.892 Y151.688
G1 F1500 X123.418 Y151.273 E13.13533
G1 X123.834 Y150.959 E13.15267
G1 X124.592 Y150.436 E13.1833
G1 X125.062 Y150.159 E13.20144
G1 X125.682 Y149.818 E13.22498
G1 X126.131 Y149.583 E13.24183
G1 X126.692 Y149.31 E13.26258
G1 X127.45 Y148.969 E13.29023
G1 X146.581 Y140.636 E13.98427
G1 X147.233 Y140.363 E14.00778
G1 X147.793 Y140.147 E14.02774
G1 X148.435 Y139.92 E14.05039
G1 X150.821 Y139.038 E14.135
G1 X153.176 Y138.09 E14.21943
G1 X155.515 Y137.071 E14.30429
G1 X157.788 Y136.004 E14.38781
G1 X160.035 Y134.87 E14.47152
G1 X162.279 Y133.657 E14.55636
G1 X164.443 Y132.406 E14.6395
G1 X165.824 Y131.552 E14.6935
G1 X166.65 Y131.052 E14.72562
G1 X167.457 Y130.61 E14.75622
G1 X168.3 Y130.239 E14.78685
G1 X169.172 Y129.944 E14.81747
G1 X170.066 Y129.725 E14.84808
G1 X170.976 Y129.584 E14.87871
G1 X171.848 Y129.524 E14.90778
G1 X172.03 Y129.519 E14.91384
G1 X172.95 Y129.534 E14.94444
G1 X173.866 Y129.628 E14.97507
G1 X174.77 Y129.802 E15.00569
G1 X175.656 Y130.053 E15.03632
G1 X176.516 Y130.381 E15.06693
G1 X177.345 Y130.781 E15.09754
G1 X178.136 Y131.253 E15.12818
G1 X178.883 Y131.791 E15.1588
G1 X179.581 Y132.391 E15.18941
G1 X180.224 Y133.051 E15.22006
G1 X180.807 Y133.763 E15.25067
G1 X181.326 Y134.523 E15.28128
G1 X181.777 Y135.326 E15.31191
G1 X182.157 Y136.164 E15.34251
G1 X182.463 Y137.033 E15.37316
G1 X182.692 Y137.924 E15.40375
G1 X182.843 Y138.833 E15.4344
G1 X182.915 Y139.755 E15.46516
G1 X182.929 Y140.503 E15.49004
G1 X182.93 Y166.202 E16.3448
G1 X182.919 Y167.073 E16.37377
G1 X182.866 Y167.992 E16.40438
G1 X182.734 Y168.903 E16.435
G1 X182.523 Y169.8 E16.46565
G1 X182.236 Y170.674 E16.49625
G1 X181.873 Y171.52 E16.52686
G1 X181.438 Y172.332 E16.5575
G1 X180.935 Y173.103 E16.58812
G1 X180.367 Y173.827 E16.61873
G1 X179.738 Y174.499 E16.64934
G1 X179.052 Y175.114 E16.67999
G1 X178.317 Y175.668 E16.7106
G1 X177.536 Y176.155 E16.74121
G1 X176.715 Y176.573 E16.77185
G1 X175.833 Y176.928 E16.80348
G1 X175.144 Y177.17 E16.82776
G1 X174.854 Y177.267 E16.83793
G1 X174.265 Y177.455 E16.8585
G1 X173.742 Y177.607 E16.87661
G1 X173.08 Y177.777 E16.89935
G1 X172.566 Y177.896 E16.91689
G1 X171.643 Y178.067 E16.94812
G1 X170.952 Y178.16 E16.97131
G1 X170.539 Y178.207 E16.98513
G1 X169.903 Y178.26 E17.00636
G1 X169.275 Y178.284 E17.02726
G1 X168.291 Y178.295 E17.05999
G1 X157.055 Y178.295 E17.4337
G1 X154.43 Y178.332 E17.52102
G1 X151.922 Y178.439 E17.60451
G1 X149.397 Y178.618 E17.6887
G1 X146.898 Y178.865 E17.77222
G1 X135.64 Y180.139 E18.14906
G1 X134.914 Y180.21 E18.17332
G1 X134.34 Y180.25 E18.19246
G1 X133.602 Y180.278 E18.21702
G1 X133.134 Y180.285 E18.23259
G1 X132.026 Y180.243 E18.26947
G1 X131.195 Y180.148 E18.29729
G1 X130.422 Y180.033 E18.32328
G1 X129.519 Y179.853 E18.3539
G1 X128.664 Y179.613 E18.38344
G1 X128.33 Y179.509 E18.39507
G1 X127.827 Y179.343 E18.41269
G1 X126.966 Y179.017 E18.44331
G1 X126.481 Y178.794 E18.46107
G1 X125.815 Y178.461 E18.48583
G1 X125.351 Y178.215 E18.5033
G1 X124.557 Y177.749 E18.53392
G1 X124.117 Y177.448 E18.55165
G1 X123.496 Y176.995 E18.57722
G1 X123.112 Y176.7 E18.59332
G1 X122.239 Y175.95 E18.6316
G1 X121.685 Y175.394 E18.65771
G1 X121.506 Y175.207 E18.66632
G1 X121.158 Y174.833 E18.68331
G1 X120.56 Y174.132 E18.71396
G1 X120.251 Y173.715 E18.73122
G1 X119.837 Y173.121 E18.7553
G1 X119.588 Y172.746 E18.77027
G1 X119.197 Y172.108 E18.79516
G1 X119.163 Y172.048 E18.79745
G1 X118.811 Y171.372 E18.8228
G1 X118.498 Y170.701 E18.84743
G1 X118.303 Y170.257 E18.86356
G1 X117.97 Y169.399 E18.89417
G1 X117.811 Y168.89 E18.91191
G1 X117.614 Y168.177 E18.93651
G1 X117.486 Y167.667 E18.954
G1 X117.301 Y166.766 E18.98459
G1 X117.229 Y166.234 E19.00245
G1 X117.152 Y165.486 E19.02746
G1 X117.114 Y165.013 E19.04324
G1 X117.086 Y163.799 E19.08363
G1 X117.123 Y163.102 E19.10684
G1 X117.143 Y162.834 E19.11578
G1 X117.188 Y162.316 E19.13308
G1 X117.307 Y161.403 E19.1637
G1 X117.407 Y160.906 E19.18056
G1 X117.58 Y160.164 E19.2059
G1 X117.715 Y159.647 E19.22367
G1 X118.073 Y158.531 E19.26265
G1 X118.336 Y157.883 E19.28591
G1 X118.45 Y157.618 E19.29551
G1 X118.667 Y157.133 E19.31318
G1 X119.079 Y156.31 E19.34379
G1 X119.368 Y155.822 E19.36266
G1 X119.772 Y155.188 E19.38766
G1 X120.046 Y154.779 E19.40403
G1 X120.591 Y154.037 E19.43466
G1 X120.929 Y153.637 E19.45207
G1 X121.403 Y153.11 E19.47565
G1 X121.752 Y152.739 E19.49259
G1 X122.371 Y152.133 E19.5214
G1 X122.412 Y152.096 E19.52324
G1 X122.892 Y151.688 E19.54419
G0 F3600 X123.142 Y152
G1 F1500 X123.659 Y151.592 E19.5661
G1 X124.075 Y151.278 E19.58343
G1 X124.819 Y150.766 E19.61347
G1 X125.256 Y150.508 E19.63035
G1 X125.867 Y150.172 E19.65354
G1 X126.316 Y149.937 E19.6704
G1 X126.856 Y149.674 E19.69037
G1 X127.61 Y149.336 E19.71786
G1 X146.736 Y141.005 E20.41172
G1 X147.388 Y140.732 E20.43523
G1 X147.926 Y140.525 E20.4544
G1 X148.496 Y140.323 E20.47452
G1 X151.003 Y139.396 E20.56342
G1 X153.319 Y138.464 E20.64645
G1 X155.667 Y137.442 E20.73162
G1 X157.959 Y136.366 E20.81584
G1 X160.226 Y135.221 E20.90031
G1 X162.478 Y134.004 E20.98545
G1 X164.649 Y132.749 E21.06885
G1 X166.031 Y131.894 E21.1229
G1 X166.857 Y131.394 E21.15502
G1 X167.65 Y130.961 E21.18507
G1 X168.477 Y130.6 E21.21508
G1 X169.334 Y130.313 E21.24514
G1 X170.212 Y130.104 E21.27516
G1 X171.106 Y129.972 E21.30522
G1 X171.859 Y129.924 E21.33031
G1 X172.041 Y129.919 E21.33637
G1 X172.944 Y129.934 E21.36641
G1 X173.842 Y130.029 E21.39644
G1 X174.728 Y130.203 E21.42647
G1 X175.595 Y130.455 E21.4565
G1 X176.437 Y130.782 E21.48654
G1 X177.246 Y131.183 E21.51658
G1 X178.017 Y131.654 E21.54663
G1 X178.743 Y132.191 E21.57666
G1 X179.419 Y132.79 E21.6067
G1 X180.039 Y133.446 E21.63672
G1 X180.599 Y134.155 E21.66677
G1 X181.093 Y134.911 E21.69681
G1 X181.519 Y135.707 E21.72684
G1 X181.873 Y136.538 E21.75688
G1 X182.152 Y137.397 E21.78692
G1 X182.354 Y138.277 E21.81695
G1 X182.477 Y139.172 E21.847
